public/assets/icons/download.svg

<svg width="20" height="20" viewBox="0 0 20 20" fill="none" xmlns="http://www.w3.org/2000/svg">
<path d="M9.35842 6.07548V2.73463C9.35842 2.3794 9.64175 2.08337 10.0001 2.08337C10.3209 2.08337 10.5927 2.33212 10.6358 2.64719L10.6418 2.73463V6.07548L14.625 6.07573C16.6083 6.07573 18.2378 7.69986 18.3293 9.72538L18.3333 9.90511V14.1045C18.3333 16.1442 16.7605 17.8185 14.8067 17.9125L14.6333 17.9167H5.36667C3.38333 17.9167 1.76174 16.3007 1.6707 14.2678L1.66667 14.0873L1.66667 9.89651C1.66667 7.85679 3.23159 6.17439 5.185 6.07991L5.35833 6.07573H9.35833V11.4111L8.025 10.0342C7.775 9.77603 7.36667 9.77603 7.11667 10.0342C6.99167 10.1633 6.93333 10.3354 6.93333 10.5075C6.93333 10.6383 6.97067 10.7746 7.0496 10.89L7.11667 10.9722L9.54167 13.4849C9.65833 13.614 9.825 13.6829 10 13.6829C10.1389 13.6829 10.2778 13.6351 10.3877 13.5444L10.45 13.4849L12.875 10.9722C13.125 10.714 13.125 10.2924 12.875 10.0342C12.6477 9.7995 12.2896 9.77817 12.0385 9.97019L11.9667 10.0342L10.6417 11.4111V6.07573L9.35842 6.07548Z" fill="#7986AC"/>
</svg>

<?xml version="1.0"?>
<svg width="20" height="20" xmlns="http://www.w3.org/2000/svg" xmlns:svg="http://www.w3.org/2000/svg">
 <g class="layer">
  <title>Layer 1</title>
  <path d="m9.36,6.08l0,-3.35c0,-0.35 0.28,-0.65 0.64,-0.65c0.32,0 0.59,0.25 0.64,0.57l0,0.08l0,3.35l3.99,0c1.98,0 3.61,1.62 3.7,3.65l0,0.18l0,4.19c0,2.04 -1.57,3.72 -3.52,3.81l-0.18,0.01l-9.26,0c-1.99,0 -3.61,-1.62 -3.7,-3.65l0,-0.18l0,-4.19c0,-2.04 1.56,-3.73 3.51,-3.82l0.18,0l4,0l0,5.33l-1.33,-1.38c-0.25,-0.25 -0.66,-0.25 -0.91,0c-0.13,0.13 -0.19,0.31 -0.19,0.48c0,0.13 0.04,0.26 0.12,0.38l0.07,0.08l2.42,2.51c0.12,0.13 0.28,0.2 0.46,0.2c0.14,0 0.28,-0.04 0.39,-0.14l0.06,-0.06l2.43,-2.51c0.25,-0.26 0.25,-0.68 0,-0.94c-0.23,-0.23 -0.59,-0.25 -0.84,-0.06l-0.07,0.06l-1.33,1.38l0,-5.33l-1.28,0z" fill="#000000" id="svg_1"/>
 </g>
</svg>
